X: 7997
T:Vals from Agerkrog
R:Waltz
O:Denmark
M:3/4
K:C
GF |\
EG Gc c2 | EG Gc c2 | Bd df fa | ag ge c2 |\
EG Gc c2 | EG Gc c2 | Bc de fd | c4 :|
|: dc |\
Bd df fa | ag ge c2 | g^f ag =fd | c2 ec G2 |\
Bd df fa | ag ge c2 | g^f ag =fd \
|1 c6 :|2 c4 :|
|: G2 |\
G2 f2 d2 | G2 e2  c2 | BA Bc dB | cB cd ec | \
G2 f2 d2 | G2 e2 c2 | BA Bc dB | c4 :|
